public/topics/29.svg

<svg width="250" height="250" viewBox="0 0 250 250" fill="none" xmlns="http://www.w3.org/2000/svg">
<rect width="250" height="250" rx="30" fill="#339933"/>
<path d="M58.2 174.2C62.7333 174.467 65.7333 174.6 67.2 174.6C71.7333 174.6 75.7333 174.533 79.2 174.4C82.8 174.267 85.8667 174.133 88.4 174C94.9333 173.6 100.8 173.4 106 173.4C111.067 173.4 114.8 174.733 117.2 177.4C119.6 180.067 120.8 183.6 120.8 188C120.8 190.133 119.4 191.867 116.6 193.2C113.8 194.4 110.933 195 108 195C105.467 195 100.2 194.733 92.2 194.2C82.6 193.4 75.0667 193 69.6 193C66.6667 193 63.2 193.2 59.2 193.6C57.6 193.733 55.6667 193.867 53.4 194C51.1333 194.133 48.6 194.2 45.8 194.2C40.4667 194.2 36.4 193.467 33.6 192C30.8 190.533 29.4 187.867 29.4 184C29.4 180.667 30.7333 177.267 33.4 173.8C36.0667 170.333 39.8 166.2 44.6 161.4L49.4 156.6C51.5333 154.333 55.4667 150.467 61.2 145C70.6667 136.467 78 128.933 83.2 122.4C88.5333 115.867 91.2 109.4 91.2 103C91.2 98.8667 89.2 95.5333 85.2 93C81.3333 90.3333 76.8667 89 71.8 89C64.0667 89 58.4667 90.7333 55 94.2C51.6667 97.5333 50 102.4 50 108.8C50 110.4 49.0667 111.867 47.2 113.2C45.4667 114.4 43.2667 115 40.6 115C36.8667 115 34.2667 113.667 32.8 111C31.3333 108.333 30.6 105.067 30.6 101.2C30.6 95.0667 32.4667 89.6667 36.2 85C39.9333 80.2 45 76.4667 51.4 73.8C57.9333 71.1333 65.1333 69.8 73 69.8C78.6 69.8 84.4 71.2 90.4 74C96.5333 76.6667 101.6 80.3333 105.6 85C109.733 89.5333 111.8 94.5333 111.8 100C111.8 108.267 109.733 116.133 105.6 123.6C101.467 131.067 96.6 137.733 91 143.6C85.5333 149.333 78.4 156.133 69.6 164C65.3333 167.6 61.5333 171 58.2 174.2ZM167.273 175.4C171.807 173.933 176.14 171.267 180.273 167.4C184.54 163.533 188.073 159.2 190.873 154.4C193.807 149.467 195.54 144.733 196.073 140.2C192.34 142.867 188.54 144.733 184.673 145.8C180.807 146.867 176.34 147.4 171.273 147.4C164.473 147.4 158.873 146.267 154.473 144C150.073 141.6 145.407 138.2 140.473 133.8C139.673 133 138.673 131.267 137.473 128.6C136.273 125.8 135.207 122.4 134.273 118.4C133.34 114.267 132.873 110.067 132.873 105.8C132.873 101.933 134.073 97.8667 136.473 93.6C138.873 89.3333 141.873 85.5333 145.473 82.2C149.207 78.7333 152.74 76.2667 156.073 74.8C159.14 73.4667 162.673 72.3333 166.673 71.4C170.807 70.3333 174.273 69.8 177.073 69.8C186.54 69.8 194.473 72 200.873 76.4C207.407 80.8 212.207 86.6667 215.273 94C218.34 101.333 219.873 109.467 219.873 118.4C219.873 133.733 216.473 147.733 209.673 160.4C202.873 172.933 194.273 182.667 183.873 189.6C182.14 190.8 179.14 192.133 174.873 193.6C170.74 194.933 166.94 195.6 163.473 195.6C160.807 195.6 158.473 194.4 156.473 192C154.473 189.6 153.473 186.867 153.473 183.8C153.473 181.667 154.207 180.2 155.673 179.4C157.14 178.467 159.54 177.533 162.873 176.6L167.273 175.4ZM177.073 86.8C174.94 86.8 172.407 87.2667 169.473 88.2C166.673 89 164.273 90 162.273 91.2C160.007 92.5333 157.807 94.6 155.673 97.4C153.673 100.067 152.673 102.133 152.673 103.6C152.673 121.067 159.74 129.8 173.873 129.8C177.073 129.8 180.607 129.133 184.473 127.8C188.473 126.333 191.807 124.333 194.473 121.8C197.14 119.267 198.473 116.4 198.473 113.2C198.473 104.4 196.607 97.8 192.873 93.4C189.273 89 184.007 86.8 177.073 86.8Z" fill="white"/>
</svg>

<svg xmlns="http://www.w3.org/2000/svg" width="250" height="250" fill="none" viewBox="0 0 250 250"><rect width="250" height="250" fill="#393" rx="30"/><path fill="#fff" d="M58.2 174.2q6.8.4 9 .4 6.8 0 12-.2 5.4-.2 9.2-.4 9.8-.6 17.6-.6 7.6 0 11.2 4t3.6 10.6q0 3.2-4.2 5.2-4.2 1.8-8.6 1.8-3.8 0-15.8-.8-14.4-1.2-22.6-1.2-4.4 0-10.4.6-2.4.2-5.8.4t-7.6.2q-8 0-12.2-2.2t-4.2-8q0-5 4-10.2t11.2-12.4l4.8-4.8q3.2-3.4 11.8-11.6 14.2-12.8 22-22.6 8-9.8 8-19.4 0-6.2-6-10-5.8-4-13.4-4-11.6 0-16.8 5.2-5 5-5 14.6 0 2.4-2.8 4.4-2.6 1.8-6.6 1.8-5.6 0-7.8-4t-2.2-9.8q0-9.2 5.6-16.2 5.6-7.2 15.2-11.2 9.8-4 21.6-4 8.4 0 17.4 4.2 9.2 4 15.2 11 6.2 6.8 6.2 15 0 12.4-6.2 23.6t-14.6 20q-8.2 8.6-21.4 20.4-6.4 5.4-11.4 10.2m109.073 1.2q6.8-2.2 13-8 6.4-5.8 10.6-13 4.4-7.4 5.2-14.2-5.6 4-11.4 5.6t-13.4 1.6q-10.2 0-16.8-3.4-6.6-3.6-14-10.2-1.2-1.2-3-5.2-1.8-4.2-3.2-10.2a57 57 0 0 1-1.4-12.6q0-5.8 3.6-12.2t9-11.4q5.6-5.2 10.6-7.4 4.6-2 10.6-3.4 6.2-1.6 10.4-1.6 14.2 0 23.8 6.6 9.801 6.6 14.4 17.6t4.6 24.4q0 23-10.2 42-10.2 18.8-25.8 29.2-2.6 1.8-9 4-6.2 2-11.4 2-4 0-7-3.6t-3-8.2q0-3.2 2.2-4.4 2.2-1.4 7.2-2.8zm9.8-88.6q-3.2 0-7.6 1.4-4.2 1.2-7.2 3-3.399 2-6.6 6.2-3 4-3 6.2 0 26.2 21.2 26.2 4.8 0 10.6-2 6-2.2 10-6t4-8.6q0-13.2-5.6-19.8-5.4-6.6-15.8-6.6"/></svg>
